X:1
T:Why wail we thus? - Kirbye
T:#
%%score { 1 | 2 } 3 { 4 | 5 } 6
L:1/8
Q:1/4=108
M:4/4
K:F
V:1 treble nm="Soprano I" snm="S"
V:2 treble 
V:3 treble nm="Alto" snm="A"
V:4 treble-8 nm="Tenor I" snm="T"
V:5 treble-8 
V:6 bass nm="Bass" snm="B"
V:1
 z8 | z8 |"^Why wail we thus?" z4 d4- | d4 f4 | e4 d4- |"^George Kirbye\n(1570 - 1634)" d4 z2 d2 | %6
w: ||Why|* wail|we thus,|* why|
[M:4/4] d3 d c2 A2 | B2 G2 D4 | z4 z2 d2 | f3 f e2 c2 | d2 B2 A4 | z2 B2 A3 F | G2 A4 (G2- | %13
w: wea- ry we the|gods with plaints,|why|wea- ry we the|gods with plaints,|why wea- ry|we the gods|
 G2 ^FE F3) G | A8 | z8 | z2 A2 A2 A2 | d3 d d2 ^c2 | f6 (e2 | d4) !fermata!^c4 || z2 =c2 c3 c | %21
w: * * * * with|plaints,||as if some|e- vil were to|her be\-|* tight?|She reigns a|
 d2 d2 ^c2 d2 | (e2 f2) e4 | ^f8 | z8 | z4 z2 e2 | f2 d2 ^c3 c | d2 B2 A2 A2 | A4 z4 | z4 z2 e2 | %30
w: god- dess now a|mong * the|saints,||that|whil- ome was the|saint of shep- herds|light,|that|
 f2 d2 ^c3 c | d2 B2 A4- | A2 A2 G4 | z2 d2 d4- | d2 B2 (A4 | =B4) z2 d2 | d2 d2 d3 d | %37
w: whil- ome was the|saint of shep\-|* herds light,|of shep\-|* herds light,|* and|is in- stall- ed|
 d2 (Bc) d2 d2 | d8 | z2 ^f2 f2 f2 | g3 g g2 d2 | a6 a2 | a8 ||[M:3/2] f4 e4 d4 | d8 d4 | ^c8 d4 | %46
w: now in * hea- ven's|height,|and is in-|stall- ed now in|hea- ven's|height.|I see thee,|bless- ed|soul, I|
 e12 | z12 | z12 | z12 | z12 |[M:3/2] z4 z4 f4 | e8 d4 | ^c6 c2 d4 | e8 f4 | e6 e2 d4 | d8 ^c4 || %57
w: see,|||||walk|in E-|ly- si- an|fields, E-|ly- si- an|fields so|
[M:4/4] d8 |[M:4/4] z4 z2 d2 | c2 B2 A4 | z2 d2 d3 d | d4 z4 | z4 z2 ag | f2 d2 e4 | A2 d3 d ^c2 | %65
w: free.|O,|hap- py hearse,|O, hap- py|hearse,|might I|once come to|thee, O, that I|
 d4 z4 | z2 A2 A4- | A2 G2 A4- | A4 z2 D2 | (GABc d2) B2 | A2 z2 z2 d2 | (dcBA BAGF/G/ | %72
w: might,|O that|* I might|* O,|joy\- * * * * ful|verse, O,|joy\- * * * * * * * *|
 A2 F2 E3) E | D8 | z4 z2[Q:1/4=106] d2 | %75
w: * * * ful|verse,|O,|
[Q:1/4=105] (a[Q:1/4=104]g[Q:1/4=103]f[Q:1/4=102]e[Q:1/4=101] f[Q:1/4=100]e[Q:1/4=99]d[Q:1/4=98]c | %76
w: joy\- * * * * * * *|
[Q:1/4=96] d2[Q:1/4=94] B2[Q:1/4=92] A3)[Q:1/4=90] A |[Q:1/4=90] =B8- | B8 |] %79
w: * * * ful|verse.||
V:2
 z8 | z8 | z8 | A8 | c4 B4 | A4 z4 |[M:4/4] z8 | z2 d2 d3 d | c2 A2 B2 G2 | D4 z4 | z8 | %11
w: |||Why|wail we|thus,||why wea- ry|we the gods with|plaints,||
 z2 d2 f3 f | e2 c2 d2 B2 | A8 | z4 z2 A2 | B2 A2 d3 d | d2 ^c2 f4- | f4 e4 | d8 | !fermata!z8 || %20
w: why wea- ry|we the gods with|plaints,|as|if some e- vil|were to her|* be-|tight?||
 z2 f2 f3 f | f2 g2 e2 d2 | (^c2 d4) c2 | d8 | z8 | z8 | z8 | z2 e2 f2 d2 | ^c3 =B A2 d2 | %29
w: She reigns a|god- dess now a|mong * the|saints,||||that whil- ome|was the saint of|
 ^c2 d2 e4 | z8 | z2 e2 f2 d2 | ^c2 d2 d2 c2 | A3 G ^F2 d2 | d6 d2 | d4 z2 g2 | g2 g2 ^f3 g | %37
w: shep- herds light,||that whil- ome|was the saint of|shep- herds light, of|shep- herds|light and|is in- stall- ed|
 a2 g2 g2 ^f2 | g8 | z4 z2 d2 | d2 d2 d3 g | g2 f2 e3 e | ^f8 ||[M:3/2] d4 e4 f4 | g8 f4 | e8 d4 | %46
w: now in hea- ven's|height,|and|is in- stall- ed|now in hea- ven's|height.|I see thee,|bless- ed|soul, I|
 ^c12 | z12 | z12 | z12 | z4 z4 f4 |[M:3/2] e8 d4 | ^c6 c2 d4 | e4 A8 | A8 a4 | a6 a2 f4 | g4 e8 || %57
w: see,||||walk|in E-|ly- si- an|fields so|free, E-|ly- si- an|fields so|
[M:4/4] ^f4 z2 d2 |[M:4/4] c2 B2 A4 | z2 d2 d3 d | G4 z2 A2 | (Bc d4) ^c2 | d4 z4 | z8 | z4 z2 ag | %65
w: free. O,|hap- py hearse,|O, hap- py|hearse, O,|hap\- * * py|hearse,||might I|
 f2 d2 e2 A2 | z2 d3 d ^c2 | d4 z4 | z2 d2 (fedc) | (dcBA B3 A/G/ | FD G4) ^F2 | G4 z2 D2 | %72
w: once come to thee,|O, that I|might|O, joy\- * * *||* * * ful|verse, O,|
 E2 A2 A4 | z2 B2 (agfe) | (fedc d2) B2 | A2 d2 d4- | d4 d4 | d8- | d8 |] %79
w: joy- ful verse,|o, joy\- * * *|* * * * * ful|verse, O, joy\-|* ful|verse.||
V:3
 z4 D4- | D4 F4 | E4 D4- | D4 z2 A2 | A3 A F2 G2 | G2 ^F2 G4 |[M:4/4] z4 z2 C2 | D3 D D2 G2 | %8
w: Why|* wail|we thus,|* why|wea- ry we the|gods with plaints,|why|wea- ry we the|
 G2 ^F2 G2 B2 | A3 F G2 A2- | A2 G4 ^F2 | G4 z2 D2 | E2 F2 D3 D | D2 A,2 D2 D2 | F2 F2 E3 F | %15
w: gods with plaints, why|wea- ry we the|* gods with|plaints, why|wea- ry we the|gods with plaints? As|if some e- vil|
 G2 A2 A2 G2 | A4 z4 | z2 A2 A2 E2 | F3 D FG A2- | A2 G2 !fermata!A4 || z2 A2 A3 A | B2 B2 A4- | %22
w: were to her be-|tight,|as if some|e- vil were to her|* be- tight?|She reigns a|god- dess now|
 A2 (FG) A2 A2 | A8 | z2 G2 A2 F2 | E3 D ^C2 C2 | D2 F2 E4 | z2 G2 A2 F2 | E3 D ^C2 D2 | %29
w: * a\- * mong the|saints,|that whil- ome|was the saint of|shep- herds light,|that whil- ome|was the saint of|
 A,2 A2 A4 | z2 D2 E2 E2 | D4 z4 | z2 A2 B2 G2 | ^F3 G A2 B2 | (A2 G4) ^F2 | G4 z2 _B2 | %36
w: shep- herds light,|of shep- herds|light,|that whil- ome|was the saint of|shep\- * herds|light, and|
 B2 B2 A3 G | ^F2 G2 A4 | =B4 z2 _B2 | A2 A2 A4 | D4 z2 d2 | ^c2 d4 c2 | d8 ||[M:3/2] A4 A4 A4 | %44
w: is in- stall- ed|now in heav'n's|height, and|is in- stall-|ed now|in hea- ven's|height.|I see thee,|
 B8 A4 | A8 A4 | A12 | A4 A4 A4 | A8 A4 | B4 A8 | A8 A4 |[M:3/2] A8 D4 | E6 E2 A4 | A8 A4 | A8 A4 | %55
w: bless- ed|soul, I|see,|I see thee,|bless- ed|soul, I|see, walk|in E-|ly- si- an|fields so|free, E-|
 A6 ^c2 B4- | B4 A4 A4 ||[M:4/4] A4 z2 D2 |[M:4/4] (EF G4) ^F2 | G4 z4 | z4 z2 A2 | G2 F2 E4 | %62
w: ly- si- an|* fields so|free. O,|hap\- * * py|hearse.|O,|hap- py hearse,|
 z2 AG F2 E2 | D4 A2 A2- | A2 F2 E4 | D4 z4 | z4 z2 AG | F2 D2 E2 A,2 | z2 A3 A A2 | %69
w: might I once come|to thee, O,|* that I|might,|might I|once come to thee,|O, that I|
 B2 B,2 (B,CDE | F2) D2 D2 A2 | (BAGF GFED | ^C2 D4) C2 | D4 z2 d2 | (dcBA BAGF/G/ | A2) B4 A2- | %76
w: might, O, joy\- * * *|* ful verse, O,|joy\- * * * * * * *|* * ful|verse, O,|joy\- * * * * * * * *|* ful verse,|
 AG G4 ^F2 | G8- | G8 |] %79
w: * O, joy- ful|verse.||
V:4
 z8 | z8 | z8 | z8 | z4 z2 d2 | d3 d B2 G2- |[M:4/4][K:treble-8] G2 g4 ^f2 | g4 z4 | c4 d2 g2 | %9
w: ||||Why|wea- ry we the|* gods with|plaints,|why wail we|
 f4 z2 e2 | d3 d d2 A2 | B2 G2 D4 | z8 | z2 A2 A2 A2 | d3 d d2 ^c2 | (de f4 ed | e2) e2 d4 | %17
w: thus, why|wea- ry we the|gods with plaints,||as if some|e- vil were to|her * * * *|* be- tight,|
 z2 d2 ee a2- | aa f3 d (e2 | f2) d2 !fermata!e4 || z2 f2 f3 f | d2 d2 z4 | e2 d2 e2 e2 | d8 | %24
w: as if some e\-|* vil were to her|* be- tight?|She reigns a|god- dess|now a- mong the|saints,|
 z2 e2 f2 d2 | ^c3 d e2 a2 | a6 a2 | d4 z4 | z4 z2 g2 | a2 f2 e2 a2 | a2 g2 a3 a | f2 g2 a2 f2 | %32
w: that whil- ome|was the saint of|shep- herds|light,|that|whil- ome was the|saint of shep- herds|light, that whil- ome|
 e2 f2 d2 G2 | d6 d2 | d8 | z4 z2 G2 | G2 G2 d3 d | d2 _e2 d4 | g8 | z2 d2 A2 A2 | B6 d2 | %41
w: was the saint of|shep- herds|light,|and|is in- stall \-ed|now in heav'n's|height,|and is in-|stall- ed|
 e2 (fg) a4 | a8 ||[M:3/2] d4 ^c4 d4 | d8 d4 | e8 f4 | e12 | f4 e4 d4 | ^c8 d4 | g4 e8 | ^f8 d4 | %51
w: now in * heav'n's|height.|I see thee,|bless- ed|soul, I|see,|I see thee,|bless- ed|soul, I|see, walk|
[M:3/2][K:treble-8] e8 f4 | a6 a2 d4 | z4 z4 f4 | e8 d4 | ^c6 c2 d4 | (d6 ^c2) A4 ||[M:4/4] A4 z4 | %58
w: in E-|ly- si- an,|walk|in E-|ly- si- an|fields * so|free.|
[M:4/4][K:treble-8] z4 z2 d2 | (ef g4) ^f2 | g4 z2 d2 | G3 G A4 | z2 d3 d ^c2 | d2 B2 A4 | A8 | %65
w: O,|hap\- * * py|hearse, O,|hap- py hearse,|O, that I|might come to|thee,|
 z4 z2 ag | f2 d2 e2 A2 | z2 d3 d ^c2 | d8 | z2 d2 (GABc | d2 B2 A3) A | G8 | z4 z2 a2 | %73
w: might 1|once come to thee,|O that I|might,|O, joy- * * *|* * * ful|verse,|O,|
 (agfe fedc) | d2 d2 d4- | d4 z2 d2 | d6 d2 | d8- | d8 |] %79
w: joy\- * * * * * * *|* ful verse,|* O,|joy- ful|verse.||
V:5
 G8 | B4 A4 | G8 | z2 d2 d3 d | c2 A2 B2 G2 | D4 z4 |[M:4/4][K:treble-8] z8 | z2 G2 B4 | A4 G4 | %9
w: Why|wail we|thus,|why wea- ry|we the gods with|plaints,||why wail|we thus,|
 z8 | z8 | z2 d2 d3 d | c2 A2 B2 G2 | D8 | z8 | z8 | z8 | z2 A2 A2 A2 | d3 d d2 c2 | %19
w: ||why wea- ry|we the gods with|plaints,||||as if some|e- vil were to|
 B2 B2 !fermata!A4 || z2 =c2 c3 c | B2 B2 z2 A2- | A2 D2 A2 A2 | A4 z2 A2 | B2 G2 F3 G | A6 A2 | %26
w: her be- tight?|She reigns a|god- dess now|* a- mong the|saints, that|whil- ome was the|saint of|
 D2 D2 A4 | z8 | z2 e2 f2 d2 | e2 d2 ^c3 c | d2 B2 A4 | z8 | z4 z2 ^c2 | d2 B2 A3 G | %34
w: shep- herds light,||that whil- ome|was the saint of|shep- herds light,||that|whil- ome was the|
 ^F2 G2 A2 A2 | G8 | z8 | z8 | z2 G2 G2 G2 | d3 d d2 ^f2 | d3 d d4 | z8 | z8 ||[M:3/2] d4 A4 d4 | %44
w: saint of shep- herds|light,|||and is in-|stall- ed now in|hea- ven's height.|||I see thee,|
 G8 d4 | A8 D4 | A12 | d4 e4 f4 | e8 d4 | d8 ^c4 | d12 |[M:3/2][K:treble-8] z12 | z4 z4 f4 | %53
w: bless- ed|soul, I|see,|I see thee,|bless- ed|soul, I|see,||walk|
 e8 d4 | ^c6 c2 d4 |"^iy" e4 A4"^si" d4 | z4 e8 ||[M:4/4] d4 z2 B2 |[M:4/4][K:treble-8] A2 G2 d4 | %59
w: in E-|ly- si- an|fields so free,|so|free. O,|hap- py hearse,|
 z4 z2 d2 | c2 B2 A4 | z4 z2 AG | F2 D2 A4 | D2 d3 d ^c2 | d4 z2 A2- | AA B2 A4 | z8 | z4 z2 e2 | %68
w: O,|hap- py hearse,|might I|once come to|thee, O, that 1|might, O,|* that I might||O,|
 (fedc dcBA) | G6 G2 | D8 | z8 | z4 z2 e2 | (fedc d2) D2 | D4 z2 d2 | (fedc dcBA | B3 A/G/ A2) A2 | %77
w: joy\- * * * * * * *|* ful|verse,||O,|joy\- * * * * ful|verse, O,|joy\- * * * * * * *|* * * * ful|
 G8- | G8 |] %79
w: verse.||
V:6
 z8 | z8 | z8 | z8 | z8 | z4 G,4 |[M:4/4] B,4 A,4 | G,8 | z4 z2 D2 | D3 D C2 A,2 | B,2 G,2 D,4 | %11
w: |||||Why|wail we|thus,|why|wea- ry we the|gods with plaints?|
 z8 | z8 | z4 z2 D,2 | D,2 D,2 A,3 A, | G,2 F,2 B,4 | A,4 D,4- | D,4 z4 | z8 | !fermata!z8 || %20
w: ||As|if some e- vil|were to her|be- tight,||||
 z2 F,2 F,3 F, | B,2 G,2 A,2 D,2 | A,6 A,2 | D,8 | z8 | z8 | z4 z2 A,2 | B,2 G,2 F,3 G, | %28
w: She reigns a|god- dess now a-|mong the|saints,|||that|whil- ome was the|
 A,6 _B,2 | A,4 A,4 | D,4 z2 A,2 | B,2 G,2 F,3 G, | A,2 F,2 G,2 E,2 | D,8- | D,8 | z8 | z8 | z8 | %38
w: saint of|shep- herds|light, that|whil- ome was the|saint of shep- herds|light,|||||
 z8 | z2 D,2 D,2 D,2 | G,3 G, G,2 B,2 | A,6 A,2 | D8 ||[M:3/2] z12 | z12 | z12 | z12 | %47
w: |and is in-|stall- ed now in|hea- ven's|height.|||||
 D,4 ^C,4 D,4 | A,8 F,4 | G,4 A,8 | D,8 D4 |[M:3/2] ^C8 D4 | A,6 A,2 F,4 | A,8 D,4 | A,8 D4 | %55
w: I see thee,|bless- ed|soul, I|see, walk|in E-|ly- si- an|fields so|free, E-|
 A,6 A,2 B,4 | G,4 A,8 ||[M:4/4] D,8 |[M:4/4] z8 | z4 z2 D,2 | (E,F, G,4) ^F,2 | G,4 z4 | z8 | %63
w: ly- si- an|fields so|free.||O,|hap\- * * py|hearse,||
 z4 z2 A,G, | F,2 D,2 A,4 | D,2 D3 D ^C2 | D4 A,4 | B,4 A,4 | D,8 | z8 | z4 z2 D,2 | %71
w: might I|once come to|thee, O, that 1|might, O,|that I|might,||O,|
 (G,A,B,C D2 B,2 | A,6) A,2 | D,8 | z4 G,4 | D,8- | D,4 D,4 | G,,8- | G,,8 |] %79
w: joy\- * * * * *|* ful|verse,|O,|joy\-|* ful|verse.||

